svgs/figma.svg

<svg width="192" height="192" viewBox="0 0 192 192" fill="none" xmlns="http://www.w3.org/2000/svg">
<g clip-path="url(#clip0_135_6)">
<path fill-rule="evenodd" clip-rule="evenodd" d="M54.2992 71.0363C46.2772 65.6354 41 56.4701 41 46.0726C41 30.2064 53.2883 17.2093 68.8665 16.0797V16H71.0725H89.0696H103.003H121H122.2V16.0235C138.252 16.6534 151.072 29.8663 151.072 46.0726C151.072 56.47 145.795 65.6353 137.773 71.0362C145.795 76.4368 151.072 85.6022 151.072 96C151.072 112.609 137.608 126.073 121 126.073C113.376 126.073 106.413 123.235 101.112 118.558V127.034C101.134 127.33 101.145 127.629 101.145 127.931V156.122C101.145 167.098 92.2439 176 81.2671 176H71.0725C54.4643 176 41 162.536 41 145.927C41 135.53 46.2772 126.365 54.2992 120.964C46.2772 115.563 41 106.398 41 96C41 85.6025 46.2772 76.4371 54.2992 71.0363ZM53.0755 46.0726C53.0755 36.1335 61.1335 28.0755 71.0725 28.0755H89.0696V64.0696H71.0725C61.1335 64.0696 53.0755 56.0116 53.0755 46.0726ZM121 64.0696H103.003V28.0755H121C130.939 28.0755 138.997 36.1335 138.997 46.0726C138.997 56.0116 130.939 64.0696 121 64.0696ZM71.0725 113.997C61.1335 113.997 53.0755 105.939 53.0755 96C53.0755 86.061 61.1335 78.0029 71.0725 78.0029H89.0696V113.997H71.0725ZM71.0725 163.925C61.1335 163.925 53.0755 155.866 53.0755 145.927C53.0755 135.988 61.1335 127.931 71.0725 127.931H89.0696V156.122C89.0696 160.43 85.5747 163.925 81.2671 163.925H71.0725ZM121 113.997C130.939 113.997 138.997 105.939 138.997 96C138.997 86.0605 130.939 78.0029 121 78.0029C111.06 78.0029 103.003 86.0605 103.003 96C103.003 105.939 111.06 113.997 121 113.997Z" fill="black"/>
</g>
<defs>
<clipPath id="clip0_135_6">
<rect width="192" height="192" fill="white"/>
</clipPath>
</defs>
</svg>

<svg width="192" height="192" fill="none" xmlns="http://www.w3.org/2000/svg"><g clip-path="url(#a)"><path fill-rule="evenodd" clip-rule="evenodd" d="M54.3 71.036C46.276 65.636 41 56.47 41 46.073c0-15.867 12.288-28.864 27.867-29.993V16H122.2v.023c16.052.63 28.872 13.843 28.872 30.05 0 10.397-5.277 19.562-13.299 24.963 8.022 5.4 13.299 14.566 13.299 24.964 0 16.609-13.464 30.073-30.072 30.073a29.961 29.961 0 0 1-19.888-7.515v8.476c.022.296.033.595.033.897v28.191c0 10.976-8.901 19.878-19.878 19.878H71.073C54.464 176 41 162.536 41 145.927c0-10.397 5.277-19.562 13.3-24.963C46.276 115.563 41 106.398 41 96c0-10.397 5.277-19.563 13.3-24.964Zm-1.224-24.963c0-9.94 8.057-17.997 17.997-17.997H89.07V64.07H71.073c-9.94 0-17.997-8.058-17.997-17.997ZM121 64.07h-17.997V28.076H121c9.939 0 17.997 8.057 17.997 17.997 0 9.939-8.058 17.997-17.997 17.997Zm-49.927 49.927c-9.94 0-17.997-8.058-17.997-17.997s8.057-17.997 17.997-17.997H89.07v35.994H71.073Zm0 49.928c-9.94 0-17.997-8.059-17.997-17.998 0-9.939 8.057-17.996 17.997-17.996H89.07v28.191a7.805 7.805 0 0 1-7.803 7.803H71.073ZM121 113.997c9.939 0 17.997-8.058 17.997-17.997 0-9.94-8.058-17.997-17.997-17.997-9.94 0-17.997 8.058-17.997 17.997s8.057 17.997 17.997 17.997Z" fill="#000"/></g><defs><clipPath id="a"><path fill="#fff" d="M0 0h192v192H0z"/></clipPath></defs></svg>
